X: 754
T: Baijia shan
%%abc-version 2.0
%%abcx-abcm2ps-target-version 5.9.1 (29 Sep 2008)
%%abc-creator hum2abc beta
%%abcx-conversion-date 2013/10/02 07:52:30
%%abc-edited-by Helmut Schaffrath
%%humdrum-veritas 1168293099
%%humdrum-veritas-data 684877963
%%continueall 1
%%barnumbers 0
L: 1/16
M: 2/4
K: F
G2 G A G F D C [I:setbarnb 1]| 
F4D4 | 
G2 G A G F d c | 
F4D4 | 
G2 F2G4 | 
c4d f d c | 
B2 c2 G2 F2 | 
D2 F F D C B,2 | 
C8 |]  



